packages/components/src/components/icon/common/ic-beyonic.svg

<svg width="64" height="40" viewBox="0 0 64 40" fill="none" xmlns="http://www.w3.org/2000/svg">
<path d="M15.867 11.5L19.0118 25.1209L5.21913 28.2999L2 14.6057L15.867 11.5Z" fill="#004361"/>
<path d="M54.3233 23.9471H52.0947V15.9262H54.3233V23.9471Z" fill="#B6CDED"/>
<path d="M53.1842 14.8503C53.9766 14.8503 54.6205 14.2634 54.6205 13.5297C54.6205 12.7961 53.9766 12.2092 53.1842 12.2092C52.3918 12.2092 51.748 12.7961 51.748 13.5297C51.748 14.2634 52.3918 14.8503 53.1842 14.8503Z" fill="#B6CDED"/>
<path fill-rule="evenodd" clip-rule="evenodd" d="M9.87462 12.2825V16.9287C11.1127 15.2169 14.3319 15.2169 15.0748 17.9069C15.7433 20.3034 14.7776 23.7514 11.8556 24.0204C9.13175 24.2649 7.646 23.7758 7.646 23.7758V12.2825H9.87462ZM9.87462 22.3086C9.87462 22.3086 12.3509 23.0422 12.8461 20.5968C12.8461 20.5968 13.3414 17.9069 11.608 17.6623C9.87462 17.4178 9.87462 20.3523 9.87462 20.3523V22.3086Z" fill="#B6CDED"/>
<path fill-rule="evenodd" clip-rule="evenodd" d="M19.4082 22.1862C21.1415 22.9198 23.1225 21.9417 23.1225 21.9417L23.3702 23.6534C22.132 24.3871 19.9034 24.1425 19.9034 24.1425C17.1795 23.898 16.6843 22.4307 16.4367 21.208C16.189 19.9854 16.4367 18.5181 16.4367 18.5181C16.9319 16.3173 19.4082 15.8282 19.4082 15.8282C21.8844 15.5836 22.8749 16.5618 23.3702 17.7845C23.8654 19.0072 23.494 20.3522 23.494 20.3522H18.5415C18.4177 21.4526 19.4082 22.1862 19.4082 22.1862ZM18.6653 19.0072H21.3892C21.3892 19.0072 21.6368 17.2954 19.9034 17.2954C18.4177 17.7845 18.6653 19.0072 18.6653 19.0072Z" fill="#B6CDED"/>
<path d="M26.8864 15.9261H24.4102L27.2084 24.0937C26.6636 26.7592 24.5092 26.0011 24.5092 26.0011L24.2121 27.8107C28.1741 28.7889 29.3132 24.1426 29.3132 24.1426L32.5818 15.9261H30.1056L28.4465 20.7924L26.8864 15.9261Z" fill="#B6CDED"/>
<path fill-rule="evenodd" clip-rule="evenodd" d="M35.1818 16.2686C35.1818 16.2686 36.2219 15.7061 37.5838 15.7795C40.902 15.9507 41.6449 18.7629 40.8525 21.355C40.1839 23.5314 38.0543 23.9716 38.0543 23.9716C38.0543 23.9716 35.578 24.7052 33.9437 22.9689C32.3094 21.2572 33.3247 18.3227 33.6218 17.8092C33.919 17.2956 34.2904 16.8065 35.1818 16.2686ZM37.1133 17.6624C36.0981 17.6624 35.4047 18.6406 35.4047 19.9366C35.4047 21.2327 35.8009 22.2598 37.1133 22.2598C38.1286 22.2598 38.8219 21.2083 38.8219 19.9366C38.8219 18.665 38.3514 17.6869 37.1133 17.6624Z" fill="#B6CDED"/>
<path d="M44.7153 15.9261H42.66C42.66 15.8283 42.7096 23.9715 42.6353 23.9715H44.9134V19.7165C45.0868 17.9803 46.2011 17.7113 46.2011 17.7113C47.8849 17.2711 47.5383 19.2274 47.5383 19.2274V23.8981H49.8164V18.0781C49.7174 16.9043 49.2964 16.1951 48.6031 15.9506C47.9097 15.706 47.3154 15.6816 46.4487 15.8528C45.582 16.024 44.7153 17.1733 44.7153 17.1733V15.9261Z" fill="#B6CDED"/>
<path d="M55.9328 19.8144C55.8585 16.6109 59.2015 14.997 61.9748 16.1218L61.5291 17.907C60.0434 17.2467 58.4833 17.9314 58.2605 19.5454C58.1614 20.2546 58.2109 21.2083 58.8052 21.7462C59.5481 22.3821 60.811 22.1375 61.6034 21.7952L61.9996 23.5069C62.0211 23.5917 61.2994 23.8048 61.0576 23.8762C61.0202 23.8873 60.9943 23.8949 60.9843 23.8982C59.5976 24.2406 57.6909 24.0694 56.7252 22.92C56.0071 22.0641 55.9576 20.8904 55.9328 19.8144Z" fill="#B6CDED"/>
</svg>

<svg width="64" height="40" fill="none" xmlns="http://www.w3.org/2000/svg"><path d="m15.867 11.5 3.145 13.62L5.219 28.3 2 14.606 15.867 11.5Z" fill="#004361"/><path d="M54.323 23.947h-2.228v-8.02h2.228v8.02ZM53.184 14.85c.793 0 1.437-.587 1.437-1.32 0-.734-.644-1.32-1.437-1.32-.792 0-1.436.586-1.436 1.32 0 .733.644 1.32 1.436 1.32Z" fill="#B6CDED"/><path fill-rule="evenodd" clip-rule="evenodd" d="M9.875 12.283v4.646c1.238-1.712 4.457-1.712 5.2.978.668 2.396-.297 5.844-3.22 6.113-2.723.245-4.209-.244-4.209-.244V12.283h2.229Zm0 10.026s2.476.733 2.971-1.712c0 0 .495-2.69-1.238-2.935-1.733-.244-1.733 2.69-1.733 2.69v1.957ZM19.408 22.186c1.733.734 3.714-.244 3.714-.244l.248 1.711c-1.238.734-3.467.49-3.467.49-2.723-.245-3.219-1.712-3.466-2.935-.248-1.223 0-2.69 0-2.69.495-2.2 2.971-2.69 2.971-2.69 2.476-.244 3.467.734 3.962 1.957.495 1.222.124 2.567.124 2.567h-4.953c-.123 1.1.867 1.834.867 1.834Zm-.743-3.179h2.724s.248-1.712-1.486-1.712c-1.485.49-1.238 1.712-1.238 1.712Z" fill="#B6CDED"/><path d="M26.886 15.926H24.41l2.798 8.168C26.664 26.759 24.51 26 24.51 26l-.297 1.81c3.962.978 5.101-3.668 5.101-3.668l3.269-8.217h-2.476l-1.66 4.866-1.56-4.866Z" fill="#B6CDED"/><path fill-rule="evenodd" clip-rule="evenodd" d="M35.182 16.269s1.04-.563 2.402-.49c3.318.172 4.06 2.984 3.268 5.576-.668 2.176-2.798 2.617-2.798 2.617s-2.476.733-4.11-1.003c-1.635-1.712-.62-4.646-.322-5.16.297-.513.668-1.003 1.56-1.54Zm1.931 1.393c-1.015 0-1.708.979-1.708 2.275 0 1.296.396 2.323 1.708 2.323 1.016 0 1.709-1.052 1.709-2.323 0-1.272-.47-2.25-1.709-2.275Z" fill="#B6CDED"/><path d="M44.715 15.926H42.66c0-.098.05 8.045-.025 8.045h2.278v-4.255c.174-1.736 1.288-2.005 1.288-2.005 1.684-.44 1.337 1.516 1.337 1.516v4.671h2.278v-5.82c-.099-1.174-.52-1.883-1.213-2.127-.693-.245-1.288-.27-2.154-.098-.867.171-1.734 1.32-1.734 1.32v-1.247ZM55.933 19.814c-.075-3.203 3.269-4.817 6.042-3.692l-.446 1.785c-1.486-.66-3.046.024-3.269 1.638-.099.71-.05 1.663.545 2.201.743.636 2.006.392 2.798.05l.397 1.71c.021.086-.7.299-.942.37l-.074.022c-1.386.343-3.293.171-4.259-.978-.718-.856-.767-2.03-.792-3.106Z" fill="#B6CDED"/></svg>
